X:1
T: Hot Tar Road
R: jig
C: Rick Gagne
N: 1988 on tenor banjo
Q: 1/4=165
M: 6/8
K: D
f | "F#m"a^ga "G"=gaf | "A"a=fe "Bm"dBA | "G"GBd "Em"gfe | "A"Ace "G"gfe |
"F#m"a^ga "G"=gaf | "A"a=fe "Bm"dBA | "G"GBd "Em"gfe | "A"Adc "D"d2 :|
B | "G"GBd gfe | "Em"GBd gfe | "A"Ace gfe | Ace "Em"gfe |
"F#m"a^ga "G"=gaf | "A"a=fe "Bm"dBA | "G"GBd "Em"gfe | "A"Adc "D"d2 :|
